TrafficJam2023/images/main-page/banner-block.svg

<svg width="411" height="292" viewBox="0 0 411 292" fill="none" xmlns="http://www.w3.org/2000/svg">
<g filter="url(#filter0_b_54_233)">
<path d="M239.559 292H24C10.7452 292 0 281.255 0 268V36.4411C0 30.0759 2.52856 23.9714 7.02943 19.4706L19.4706 7.02944C23.9714 2.52856 30.0759 0 36.4411 0H387C400.255 0 411 10.7452 411 24V100.5C411 113.755 400.255 124.5 387 124.5H335.441C329.076 124.5 322.971 127.029 318.471 131.529L292.029 157.971C287.529 162.471 285 168.576 285 174.941V246.559C285 252.924 282.471 259.029 277.971 263.529L256.529 284.971C252.029 289.471 245.924 292 239.559 292Z" fill="#000210" fill-opacity="0.1"/>
<path d="M239.559 291.25H24C11.1594 291.25 0.75 280.841 0.75 268V36.4411C0.75 30.2748 3.19954 24.3611 7.55976 20.0009L20.0009 7.55977C24.3611 3.19955 30.2749 0.75 36.4411 0.75H387C399.841 0.75 410.25 11.1594 410.25 24V100.5C410.25 113.341 399.841 123.75 387 123.75H335.441C328.877 123.75 322.582 126.358 317.94 130.999L291.499 157.44C286.858 162.082 284.25 168.377 284.25 174.941V246.559C284.25 252.725 281.8 258.639 277.44 262.999L255.999 284.44C251.639 288.8 245.725 291.25 239.559 291.25Z" stroke="#6B6B6B" stroke-width="1.5"/>
</g>
<path d="M37.12 48H86.144V57.6H67.072V96H56.192V57.6H37.12V48ZM125.842 96L111.378 77.76H103.026V96H92.178V48H119.506C122.983 48 126.055 48.6293 128.722 49.888C131.389 51.1253 133.458 52.8747 134.93 55.136C136.402 57.3973 137.138 60 137.138 62.944C137.138 65.4613 136.583 67.7333 135.474 69.76C134.365 71.7867 132.786 73.4613 130.738 74.784C128.711 76.1067 126.333 76.992 123.602 77.44L138.578 96H125.842ZM103.026 56.576V69.312H118.194C120.669 69.312 122.61 68.7467 124.018 67.616C125.447 66.4853 126.162 64.928 126.162 62.944C126.162 60.96 125.447 59.4027 124.018 58.272C122.61 57.1413 120.669 56.576 118.194 56.576H103.026ZM198.511 96H186.927L182.383 85.888H155.759L151.215 96H139.631L162.063 48H176.079L198.511 96ZM169.071 56.352L159.759 77.056H178.415L169.071 56.352ZM244.734 48V57.312H214.526V68.32H243.614V77.632H214.526V96H203.678V48H244.734ZM293.109 48V57.312H262.901V68.32H291.989V77.632H262.901V96H252.053V48H293.109ZM300.428 96V48H311.276V96H300.428ZM373.084 76.448C372.614 80.5013 371.196 84.0853 368.828 87.2C366.46 90.2933 363.334 92.6933 359.452 94.4C355.569 96.1067 351.174 96.96 346.268 96.96C340.828 96.96 336.028 95.9253 331.868 93.856C327.729 91.7653 324.518 88.832 322.236 85.056C319.953 81.28 318.812 76.928 318.812 72C318.812 67.072 319.953 62.72 322.236 58.944C324.518 55.168 327.729 52.2453 331.868 50.176C336.028 48.0853 340.828 47.04 346.268 47.04C351.174 47.04 355.569 47.8933 359.452 49.6C363.334 51.3067 366.46 53.7173 368.828 56.832C371.196 59.9253 372.614 63.4987 373.084 67.552H362.172C361.724 65.2907 360.796 63.3387 359.388 61.696C358.001 60.032 356.188 58.7627 353.948 57.888C351.708 56.992 349.137 56.544 346.236 56.544C342.886 56.544 339.974 57.1733 337.5 58.432C335.046 59.6907 333.148 61.4827 331.804 63.808C330.481 66.1333 329.82 68.864 329.82 72C329.82 75.136 330.481 77.8667 331.804 80.192C333.148 82.5173 335.046 84.3093 337.5 85.568C339.974 86.8267 342.886 87.456 346.236 87.456C350.63 87.456 354.214 86.496 356.988 84.576C359.782 82.656 361.51 79.9467 362.172 76.448H373.084ZM37.376 148.704H48.032V150.56C48.032 154.805 48.96 158.016 50.816 160.192C52.6933 162.368 55.6693 163.456 59.744 163.456C63.7547 163.456 66.72 162.421 68.64 160.352C70.56 158.261 71.52 155.253 71.52 151.328V124H82.368V151.84C82.368 156.299 81.4293 160.117 79.552 163.296C77.6747 166.453 75.0293 168.853 71.616 170.496C68.224 172.139 64.2667 172.96 59.744 172.96C55.264 172.96 51.3387 172.117 47.968 170.432C44.6187 168.747 42.016 166.283 40.16 163.04C38.3253 159.797 37.408 155.893 37.408 151.328L37.376 148.704ZM143.324 172H131.74L127.196 161.888H100.572L96.0275 172H84.4435L106.876 124H120.892L143.324 172ZM113.884 132.352L104.572 153.056H123.228L113.884 132.352ZM182.219 161.6L199.147 124H215.851V172H205.515V133.728L187.787 172H176.555L158.827 133.888V172H148.491V124H165.195L182.219 161.6ZM56.128 239.232H85.248V248H39.168V240.32L59.68 228.32C63.2 226.229 65.888 224.491 67.744 223.104C69.6213 221.717 70.9653 220.416 71.776 219.2C72.5867 217.984 72.992 216.661 72.992 215.232C72.992 213.739 72.576 212.416 71.744 211.264C70.9333 210.112 69.7067 209.216 68.064 208.576C66.4427 207.915 64.4587 207.584 62.112 207.584C58.0373 207.584 54.9547 208.448 52.864 210.176C50.7733 211.883 49.5787 214.123 49.28 216.896H38.432C38.688 213.312 39.872 210.176 41.984 207.488C44.096 204.779 46.9227 202.699 50.464 201.248C54.0267 199.776 58.0373 199.04 62.496 199.04C66.6987 199.04 70.4107 199.701 73.632 201.024C76.8747 202.325 79.3813 204.16 81.152 206.528C82.944 208.875 83.84 211.584 83.84 214.656C83.84 217.067 83.2213 219.296 81.984 221.344C80.768 223.392 78.8267 225.44 76.16 227.488C73.4933 229.515 69.888 231.744 65.344 234.176L56.128 239.232ZM117.058 248.96C111.767 248.96 107.148 247.925 103.202 245.856C99.2548 243.787 96.2148 240.875 94.0815 237.12C91.9482 233.344 90.8815 228.971 90.8815 224C90.8815 219.029 91.9482 214.667 94.0815 210.912C96.2148 207.136 99.2548 204.213 103.202 202.144C107.148 200.075 111.767 199.04 117.058 199.04C122.327 199.04 126.924 200.075 130.85 202.144C134.796 204.213 137.836 207.136 139.97 210.912C142.103 214.667 143.17 219.029 143.17 224C143.17 228.971 142.103 233.344 139.97 237.12C137.836 240.875 134.796 243.787 130.85 245.856C126.924 247.925 122.327 248.96 117.058 248.96ZM117.058 240.096C120.236 240.096 122.967 239.467 125.25 238.208C127.532 236.928 129.271 235.083 130.466 232.672C131.682 230.261 132.29 227.371 132.29 224C132.29 220.629 131.682 217.739 130.466 215.328C129.271 212.917 127.532 211.083 125.25 209.824C122.967 208.544 120.236 207.904 117.058 207.904C113.836 207.904 111.074 208.533 108.77 209.792C106.487 211.051 104.738 212.885 103.522 215.296C102.327 217.707 101.73 220.608 101.73 224C101.73 227.392 102.327 230.293 103.522 232.704C104.738 235.115 106.487 236.949 108.77 238.208C111.074 239.467 113.836 240.096 117.058 240.096ZM166.253 239.232H195.373V248H149.293V240.32L169.805 228.32C173.325 226.229 176.013 224.491 177.869 223.104C179.746 221.717 181.09 220.416 181.901 219.2C182.712 217.984 183.117 216.661 183.117 215.232C183.117 213.739 182.701 212.416 181.869 211.264C181.058 210.112 179.832 209.216 178.189 208.576C176.568 207.915 174.584 207.584 172.237 207.584C168.162 207.584 165.08 208.448 162.989 210.176C160.898 211.883 159.704 214.123 159.405 216.896H148.557C148.813 213.312 149.997 210.176 152.109 207.488C154.221 204.779 157.048 202.699 160.589 201.248C164.152 199.776 168.162 199.04 172.621 199.04C176.824 199.04 180.536 199.701 183.757 201.024C187 202.325 189.506 204.16 191.277 206.528C193.069 208.875 193.965 211.584 193.965 214.656C193.965 217.067 193.346 219.296 192.109 221.344C190.893 223.392 188.952 225.44 186.285 227.488C183.618 229.515 180.013 231.744 175.469 234.176L166.253 239.232ZM236.175 223.136C239.823 223.797 242.628 225.067 244.591 226.944C246.575 228.8 247.567 231.189 247.567 234.112C247.567 237.013 246.649 239.584 244.815 241.824C243.001 244.064 240.345 245.813 236.847 247.072C233.369 248.331 229.209 248.96 224.367 248.96C219.588 248.96 215.396 248.288 211.791 246.944C208.207 245.579 205.401 243.659 203.375 241.184C201.348 238.688 200.26 235.776 200.111 232.448H210.959C211.321 235.051 212.612 237.035 214.831 238.4C217.071 239.744 220.249 240.416 224.367 240.416C228.335 240.416 231.353 239.797 233.423 238.56C235.492 237.323 236.527 235.573 236.527 233.312C236.527 231.968 236.164 230.859 235.439 229.984C234.735 229.109 233.561 228.448 231.919 228C230.297 227.552 228.1 227.328 225.327 227.328H216.847V219.712H225.327C228.847 219.712 231.428 219.189 233.071 218.144C234.713 217.099 235.535 215.637 235.535 213.76C235.535 211.776 234.628 210.251 232.815 209.184C231.023 208.117 228.335 207.584 224.751 207.584C221.081 207.584 218.191 208.235 216.079 209.536C213.967 210.837 212.697 212.704 212.271 215.136H201.391C201.647 212.107 202.745 209.376 204.687 206.944C206.628 204.491 209.348 202.56 212.847 201.152C216.367 199.744 220.527 199.04 225.327 199.04C229.572 199.04 233.295 199.595 236.495 200.704C239.695 201.792 242.159 203.339 243.887 205.344C245.636 207.349 246.511 209.664 246.511 212.288C246.511 214.869 245.636 217.12 243.887 219.04C242.159 220.939 239.588 222.304 236.175 223.136Z" fill="#FDFDFD"/>
<defs>
<filter id="filter0_b_54_233" x="-11" y="-11" width="433" height="314" filterUnits="userSpaceOnUse" color-interpolation-filters="sRGB">
<feFlood flood-opacity="0" result="BackgroundImageFix"/>
<feGaussianBlur in="BackgroundImageFix" stdDeviation="5.5"/>
<feComposite in2="SourceAlpha" operator="in" result="effect1_backgroundBlur_54_233"/>
<feBlend mode="normal" in="SourceGraphic" in2="effect1_backgroundBlur_54_233" result="shape"/>
</filter>
</defs>
</svg>

<svg xmlns="http://www.w3.org/2000/svg" width="411" height="292" fill="none" viewBox="0 0 411 292"><g filter="url(#a)"><path fill="#000210" fill-opacity="0.1" d="M239.559 292H24c-13.255 0-24-10.745-24-24V36.441a24 24 0 0 1 7.03-16.97L19.47 7.029A24 24 0 0 1 36.442 0H387c13.255 0 24 10.745 24 24v76.5c0 13.255-10.745 24-24 24h-51.559a24 24 0 0 0-16.97 7.029l-26.442 26.442a24 24 0 0 0-7.029 16.97v71.618a24 24 0 0 1-7.029 16.97l-21.442 21.442a24 24 0 0 1-16.97 7.029Z"/><path stroke="#6B6B6B" stroke-width="1.5" d="M239.559 291.25H24C11.16 291.25.75 280.841.75 268V36.441a23.25 23.25 0 0 1 6.81-16.44L20 7.56A23.25 23.25 0 0 1 36.442.75H387c12.841 0 23.25 10.41 23.25 23.25v76.5c0 12.841-10.409 23.25-23.25 23.25h-51.559a24.753 24.753 0 0 0-17.501 7.249l-26.441 26.441a24.753 24.753 0 0 0-7.249 17.501v71.618a23.25 23.25 0 0 1-6.81 16.44l-21.441 21.441a23.25 23.25 0 0 1-16.44 6.81Z"/></g><path fill="#FDFDFD" d="M37.12 48h49.024v9.6H67.072V96h-10.88V57.6H37.12V48Zm88.722 48-14.464-18.24h-8.352V96H92.178V48h27.328c3.477 0 6.549.63 9.216 1.888 2.667 1.237 4.736 2.987 6.208 5.248 1.472 2.261 2.208 4.864 2.208 7.808 0 2.517-.555 4.79-1.664 6.816-1.109 2.027-2.688 3.701-4.736 5.024-2.027 1.323-4.405 2.208-7.136 2.656L138.578 96h-12.736Zm-22.816-39.424v12.736h15.168c2.475 0 4.416-.565 5.824-1.696 1.429-1.13 2.144-2.688 2.144-4.672 0-1.984-.715-3.541-2.144-4.672-1.408-1.13-3.349-1.696-5.824-1.696h-15.168ZM198.511 96h-11.584l-4.544-10.112h-26.624L151.215 96h-11.584l22.432-48h14.016l22.432 48Zm-29.44-39.648-9.312 20.704h18.656l-9.344-20.704ZM244.734 48v9.312h-30.208V68.32h29.088v9.312h-29.088V96h-10.848V48h41.056Zm48.375 0v9.312h-30.208V68.32h29.088v9.312h-29.088V96h-10.848V48h41.056Zm7.319 48V48h10.848v48h-10.848Zm72.656-19.552c-.47 4.053-1.888 7.637-4.256 10.752-2.368 3.093-5.494 5.493-9.376 7.2-3.883 1.707-8.278 2.56-13.184 2.56-5.44 0-10.24-1.035-14.4-3.104-4.139-2.09-7.35-5.024-9.632-8.8-2.283-3.776-3.424-8.128-3.424-13.056 0-4.928 1.141-9.28 3.424-13.056 2.282-3.776 5.493-6.699 9.632-8.768 4.16-2.09 8.96-3.136 14.4-3.136 4.906 0 9.301.853 13.184 2.56 3.882 1.707 7.008 4.117 9.376 7.232 2.368 3.093 3.786 6.667 4.256 10.72h-10.912c-.448-2.261-1.376-4.213-2.784-5.856-1.387-1.664-3.2-2.933-5.44-3.808-2.24-.896-4.811-1.344-7.712-1.344-3.35 0-6.262.63-8.736 1.888-2.454 1.259-4.352 3.05-5.696 5.376-1.323 2.325-1.984 5.056-1.984 8.192s.661 5.867 1.984 8.192c1.344 2.325 3.242 4.117 5.696 5.376 2.474 1.259 5.386 1.888 8.736 1.888 4.394 0 7.978-.96 10.752-2.88 2.794-1.92 4.522-4.63 5.184-8.128h10.912ZM37.376 148.704h10.656v1.856c0 4.245.928 7.456 2.784 9.632 1.877 2.176 4.853 3.264 8.928 3.264 4.01 0 6.976-1.035 8.896-3.104 1.92-2.091 2.88-5.099 2.88-9.024V124h10.848v27.84c0 4.459-.939 8.277-2.816 11.456-1.877 3.157-4.523 5.557-7.936 7.2-3.392 1.643-7.35 2.464-11.872 2.464-4.48 0-8.405-.843-11.776-2.528-3.35-1.685-5.952-4.149-7.808-7.392-1.835-3.243-2.752-7.147-2.752-11.712l-.032-2.624ZM143.324 172H131.74l-4.544-10.112h-26.624L96.028 172H84.442l22.433-48h14.016l22.432 48Zm-29.44-39.648-9.312 20.704h18.656l-9.344-20.704Zm68.335 29.248 16.928-37.6h16.704v48h-10.336v-38.272L187.787 172h-11.232l-17.728-38.112V172h-10.336v-48h16.704l17.024 37.6ZM56.128 239.232h29.12V248h-46.08v-7.68l20.512-12c3.52-2.091 6.208-3.829 8.064-5.216 1.877-1.387 3.221-2.688 4.032-3.904.81-1.216 1.216-2.539 1.216-3.968 0-1.493-.416-2.816-1.248-3.968-.81-1.152-2.037-2.048-3.68-2.688-1.621-.661-3.605-.992-5.952-.992-4.075 0-7.157.864-9.248 2.592-2.09 1.707-3.285 3.947-3.584 6.72H38.432c.256-3.584 1.44-6.72 3.552-9.408 2.112-2.709 4.939-4.789 8.48-6.24 3.563-1.472 7.573-2.208 12.032-2.208 4.203 0 7.915.661 11.136 1.984 3.243 1.301 5.75 3.136 7.52 5.504 1.792 2.347 2.688 5.056 2.688 8.128a12.7 12.7 0 0 1-1.856 6.688c-1.216 2.048-3.157 4.096-5.824 6.144-2.667 2.027-6.272 4.256-10.816 6.688l-9.216 5.056Zm60.93 9.728c-5.291 0-9.91-1.035-13.856-3.104-3.947-2.069-6.987-4.981-9.12-8.736-2.134-3.776-3.2-8.149-3.2-13.12s1.066-9.333 3.2-13.088c2.133-3.776 5.173-6.699 9.12-8.768 3.946-2.069 8.565-3.104 13.856-3.104 5.269 0 9.866 1.035 13.792 3.104 3.946 2.069 6.986 4.992 9.12 8.768 2.133 3.755 3.2 8.117 3.2 13.088 0 4.971-1.067 9.344-3.2 13.12-2.134 3.755-5.174 6.667-9.12 8.736-3.926 2.069-8.523 3.104-13.792 3.104Zm0-8.864c3.178 0 5.909-.629 8.192-1.888 2.282-1.28 4.021-3.125 5.216-5.536 1.216-2.411 1.824-5.301 1.824-8.672 0-3.371-.608-6.261-1.824-8.672-1.195-2.411-2.934-4.245-5.216-5.504-2.283-1.28-5.014-1.92-8.192-1.92-3.222 0-5.984.629-8.288 1.888-2.283 1.259-4.032 3.093-5.248 5.504-1.195 2.411-1.792 5.312-1.792 8.704 0 3.392.597 6.293 1.792 8.704 1.216 2.411 2.965 4.245 5.248 5.504 2.304 1.259 5.066 1.888 8.288 1.888Zm49.195-.864h29.12V248h-46.08v-7.68l20.512-12c3.52-2.091 6.208-3.829 8.064-5.216 1.877-1.387 3.221-2.688 4.032-3.904.811-1.216 1.216-2.539 1.216-3.968 0-1.493-.416-2.816-1.248-3.968-.811-1.152-2.037-2.048-3.68-2.688-1.621-.661-3.605-.992-5.952-.992-4.075 0-7.157.864-9.248 2.592-2.091 1.707-3.285 3.947-3.584 6.72h-10.848c.256-3.584 1.44-6.72 3.552-9.408 2.112-2.709 4.939-4.789 8.48-6.24 3.563-1.472 7.573-2.208 12.032-2.208 4.203 0 7.915.661 11.136 1.984 3.243 1.301 5.749 3.136 7.52 5.504 1.792 2.347 2.688 5.056 2.688 8.128a12.7 12.7 0 0 1-1.856 6.688c-1.216 2.048-3.157 4.096-5.824 6.144-2.667 2.027-6.272 4.256-10.816 6.688l-9.216 5.056Zm69.922-16.096c3.648.661 6.453 1.931 8.416 3.808 1.984 1.856 2.976 4.245 2.976 7.168 0 2.901-.918 5.472-2.752 7.712-1.814 2.24-4.47 3.989-7.968 5.248-3.478 1.259-7.638 1.888-12.48 1.888-4.779 0-8.971-.672-12.576-2.016-3.584-1.365-6.39-3.285-8.416-5.76-2.027-2.496-3.115-5.408-3.264-8.736h10.848c.362 2.603 1.653 4.587 3.872 5.952 2.24 1.344 5.418 2.016 9.536 2.016 3.968 0 6.986-.619 9.056-1.856 2.069-1.237 3.104-2.987 3.104-5.248 0-1.344-.363-2.453-1.088-3.328-.704-.875-1.878-1.536-3.52-1.984-1.622-.448-3.819-.672-6.592-.672h-8.48v-7.616h8.48c3.52 0 6.101-.523 7.744-1.568 1.642-1.045 2.464-2.507 2.464-4.384 0-1.984-.907-3.509-2.72-4.576-1.792-1.067-4.48-1.6-8.064-1.6-3.67 0-6.56.651-8.672 1.952-2.112 1.301-3.382 3.168-3.808 5.6h-10.88c.256-3.029 1.354-5.76 3.296-8.192 1.941-2.453 4.661-4.384 8.16-5.792 3.52-1.408 7.68-2.112 12.48-2.112 4.245 0 7.968.555 11.168 1.664 3.2 1.088 5.664 2.635 7.392 4.64 1.749 2.005 2.624 4.32 2.624 6.944 0 2.581-.875 4.832-2.624 6.752-1.728 1.899-4.299 3.264-7.712 4.096Z"/><defs><filter id="a" width="433" height="314" x="-11" y="-11" color-interpolation-filters="sRGB" filterUnits="userSpaceOnUse"><feFlood flood-opacity="0" result="BackgroundImageFix"/><feGaussianBlur in="BackgroundImageFix" stdDeviation="5.5"/><feComposite in2="SourceAlpha" operator="in" result="effect1_backgroundBlur_54_233"/><feBlend in="SourceGraphic" in2="effect1_backgroundBlur_54_233" result="shape"/></filter></defs></svg>
